X:27
T:Fiddle Hill Jig
C:Ralph Page
M:6/8
K:G
G|"G"G2g f2e|d^cd edB|"G"G2B c2^c|"D"d3 -dAB|
"D"c2d c2d|cAF DFA| [1"D7"ded ded|"G"B3-"D7"B2:|[2"D7"ded cBA|"G"G3-"A7"G2||
K:D
|:F/2G/2|"D"A3"A"G3|"D"FAd fed|"A"c2e B2c| "A7"BA^G "D"A2F/2G/2|
"D"A3"A"G3|"D"FAd "E7"fed|1"A7"cBA ABc| "D"d3 -d2:|2"A7"cBA ABc|"D"d3 "D7"=cBA|]
